img/benefit2-icons/img3.svg

<svg width="40" height="40" viewBox="0 0 40 40" fill="none" xmlns="http://www.w3.org/2000/svg">
<g clip-path="url(#clip0_257_16078)">
<path d="M8.59375 9.84422C8.1625 9.84422 7.8125 10.1942 7.8125 10.6255C7.8125 11.0567 8.1625 11.4067 8.59375 11.4067C9.025 11.4067 9.375 11.0567 9.375 10.6255C9.375 10.1942 9.025 9.84422 8.59375 9.84422Z" fill="#0383FD"/>
<path d="M36.791 16.5258L35.6606 14.2649C35.2609 13.4655 34.4577 12.9691 33.5643 12.9691H27.0302V7.50055C27.0302 6.20828 25.9788 5.15688 24.6865 5.15688H2.34367C1.05133 5.15688 0 6.2082 0 7.50055V27.8122C0 29.1045 1.05133 30.1559 2.34367 30.1559H4.68734C4.68734 31.3554 5.14086 32.4508 5.88469 33.2807H0.78125C0.349766 33.2807 0 33.6306 0 34.062C0 34.4934 0.349766 34.8432 0.78125 34.8432H39.2172C39.6487 34.8432 39.9984 34.4934 39.9984 34.062C39.9984 33.6306 39.6487 33.2807 39.2172 33.2807H37.2386C37.9825 32.4507 38.4359 31.3554 38.4359 30.1559C38.4359 30.1113 38.4338 30.067 38.4326 30.0226C39.3436 29.701 39.9984 28.8319 39.9984 27.8122V23.4936C39.9984 22.582 40.1789 23.433 36.791 16.5258ZM35.6095 17.6563L37.9531 22.3437H30.155V17.6563H35.6095ZM1.56242 23.9061H3.12484V25.4685H1.56242V23.9061ZM9.37461 33.2807C7.65156 33.2807 6.24977 31.8788 6.24977 30.1559C6.24977 29.943 6.27086 29.7336 6.31305 29.5299C6.60688 28.082 7.89445 27.0309 9.37461 27.0309C10.8548 27.0309 12.1424 28.0819 12.4362 29.5299L12.4369 29.5332C12.4784 29.7335 12.4995 29.943 12.4995 30.1559C12.4995 31.8789 11.0977 33.2807 9.37461 33.2807ZM9.37461 25.4685C7.37297 25.4685 5.60648 26.7508 4.95523 28.5934H2.34367C1.91289 28.5934 1.56242 28.2429 1.56242 27.8121V27.0309H3.90609C4.33758 27.0309 4.68734 26.681 4.68734 26.2496V23.1248C4.68734 22.6934 4.33758 22.3435 3.90609 22.3435H1.56242V7.50055C1.56242 7.06977 1.91289 6.7193 2.34367 6.7193H24.6865C25.1173 6.7193 25.4677 7.06977 25.4677 7.50055C25.4677 8.08172 25.4677 26.7199 25.4677 28.5934H13.7936C13.1412 26.7498 11.3754 25.4685 9.37461 25.4685ZM12.8645 33.2807C13.6084 32.4507 14.0619 31.3554 14.0619 30.1559C14.6617 30.1559 28.8059 30.1559 29.0613 30.1559C29.0613 31.3554 29.5148 32.4508 30.2586 33.2807H12.8645ZM33.7486 33.2807C32.0255 33.2807 30.6238 31.8788 30.6238 30.1559C30.6238 29.943 30.6448 29.7336 30.687 29.5299C30.9809 28.082 32.2684 27.0309 33.7486 27.0309C35.2287 27.0309 36.5164 28.0819 36.8102 29.5299L36.8109 29.5332C36.8524 29.7335 36.8734 29.943 36.8734 30.1559C36.8735 31.8789 35.4716 33.2807 33.7486 33.2807ZM38.4359 27.8122C38.4359 28.072 38.3079 28.302 38.1122 28.4441C37.4191 26.6809 35.6949 25.4686 33.7486 25.4686C31.747 25.4686 29.9805 26.7509 29.3292 28.5934H27.0301V14.5315H33.5642C33.862 14.5315 34.1298 14.6971 34.263 14.9636L34.8282 16.0939H29.3738C28.9423 16.0939 28.5926 16.4438 28.5926 16.8752V23.1249C28.5926 23.5563 28.9423 23.9062 29.3738 23.9062H38.4359V27.8122Z" fill="#0383FD"/>
<path d="M21.5621 9.84422H11.7188C11.2873 9.84422 10.9375 10.1941 10.9375 10.6255C10.9375 11.0569 11.2873 11.4067 11.7188 11.4067H21.5621C21.9936 11.4067 22.3434 11.0569 22.3434 10.6255C22.3434 10.1941 21.9935 9.84422 21.5621 9.84422Z" fill="#0383FD"/>
<path d="M21.5613 12.9691H14.8428C14.4113 12.9691 14.0615 13.3189 14.0615 13.7503C14.0615 14.1817 14.4113 14.5316 14.8428 14.5316H21.5613C21.9928 14.5316 22.3425 14.1817 22.3425 13.7503C22.3425 13.3189 21.9927 12.9691 21.5613 12.9691Z" fill="#0383FD"/>
<path d="M33.7489 28.5934C32.8874 28.5934 32.1865 29.2944 32.1865 30.1559C32.1865 31.0174 32.8875 31.7183 33.7489 31.7183C34.6105 31.7183 35.3114 31.0174 35.3114 30.1559C35.3114 29.2943 34.6105 28.5934 33.7489 28.5934Z" fill="#0383FD"/>
<path d="M9.37492 28.5934C8.51336 28.5934 7.8125 29.2944 7.8125 30.1559C7.8125 31.0174 8.51344 31.7183 9.37492 31.7183C10.2365 31.7183 10.9373 31.0174 10.9373 30.1559C10.9373 29.2943 10.2365 28.5934 9.37492 28.5934Z" fill="#0383FD"/>
</g>
<defs>
<clipPath id="clip0_257_16078">
<rect width="40" height="40" fill="white"/>
</clipPath>
</defs>
</svg>

<svg width="40" height="40" fill="none" xmlns="http://www.w3.org/2000/svg"><g clip-path="url(#clip0_257_16078)" fill="#0383FD"><path d="M8.594 9.844a.782.782 0 100 1.563.782.782 0 000-1.563z"/><path d="M36.791 16.526l-1.13-2.261a2.33 2.33 0 00-2.097-1.296H27.03V7.501a2.346 2.346 0 00-2.344-2.344H2.345A2.346 2.346 0 000 7.5v20.311a2.346 2.346 0 002.344 2.344h2.343c0 1.2.454 2.295 1.198 3.125H.78a.781.781 0 000 1.562h38.436a.781.781 0 100-1.562H37.24a4.668 4.668 0 001.197-3.125c0-.045-.002-.089-.003-.133a2.347 2.347 0 001.565-2.21v-4.32c0-.911.18-.06-3.207-6.967zm-1.181 1.13l2.343 4.688h-7.798v-4.688h5.454zm-34.048 6.25h1.563v1.563H1.562v-1.563zm7.813 9.375a3.128 3.128 0 01-3.062-3.751 3.132 3.132 0 013.062-2.5 3.132 3.132 0 013.061 2.5v.003a3.128 3.128 0 01-3.062 3.748zm0-7.813a4.703 4.703 0 00-4.42 3.125H2.344a.782.782 0 01-.782-.78v-.782h2.344a.78.78 0 00.781-.781v-3.125a.781.781 0 00-.78-.782H1.561V7.501c0-.431.35-.782.782-.782h22.343c.43 0 .78.35.78.782v21.092H13.795a4.704 4.704 0 00-4.42-3.125zm3.49 7.813a4.668 4.668 0 001.197-3.125h15c0 1.2.453 2.295 1.197 3.125H12.864zm20.884 0a3.128 3.128 0 01-3.062-3.751 3.132 3.132 0 013.062-2.5 3.132 3.132 0 013.061 2.5v.003a3.128 3.128 0 01-3.062 3.748zm4.687-5.469a.78.78 0 01-.324.632 4.705 4.705 0 00-4.363-2.975 4.704 4.704 0 00-4.42 3.124H27.03V14.531h6.534c.298 0 .566.166.699.433l.565 1.13h-5.454a.781.781 0 00-.781.781v6.25c0 .431.35.781.78.781h9.063v3.906z"/><path d="M21.562 9.844H11.72a.781.781 0 000 1.563h9.843a.781.781 0 100-1.563zm-.001 3.126h-6.718a.781.781 0 100 1.562h6.718a.781.781 0 000-1.563zm12.188 15.623c-.862 0-1.563.701-1.563 1.563a1.563 1.563 0 101.563-1.563zm-24.374 0c-.862 0-1.563.701-1.563 1.563a1.563 1.563 0 101.563-1.563z"/></g><defs><clipPath id="clip0_257_16078"><path fill="#fff" d="M0 0h40v40H0z"/></clipPath></defs></svg>
